X: 373
T: By the Brookside
M:C
L:1/8
B:O'Neill's 373
N:"Moderate."
N:"collected by J. O'Neill."
N:H is a fermata, Oranment (~) is a turn.
Z:Transcribed by Chris Falt, cfalt@trytel.com
K:C
d|(e>d).c.A (GE)D>C|(EG)G>c c3d|e>d(eg) (Bc)f>e|e2d2 z2c>d|
(e>d)cA (GE)D>C|(EG)G>c c3d|e>d(eg) (Bc)(fe)|d2c2 z2||
e2|d>^cde A3e|d>^cde A3B|=c>dcA (Gc)(fe)|e4 d2d2|
e>fed ABc2|(f>g)fd Bcd2|g>age cdec|agge d2c2|
E>DC2 c>de2|F>ED2 d>ef2|G>FE2 He>~fHgf|ecfe d2c2||


